X:1
T:Caoineadh Na DTri Muire
L:1/8
M:3/4
I:linebreak $
K:G
V:1 treble 
V:1
|: GE | D3 E/G/ A3 G/A/ | B2 A2 G2 E<G | c2 cB/A/ Bd de/d/ | B2 AG (A2 A)G/A/ | B2 d4 ed | %6
 d2 BA GE/D/ E<G |$ B x4 AG | A x4 GE | D3 E G2 G2 :| %10
